src/css/fonts/SVGs/iota_icons/chrysalis_icon.svg

<svg width="48" height="48" viewBox="0 0 48 48" fill="none" xmlns="http://www.w3.org/2000/svg">
<path fill-rule="evenodd" clip-rule="evenodd" d="M23.3019 15.2963H20.7058L21.8184 12.997L23.3019 15.2963ZM21.0588 9.97531L18 16.2963V32.8889L21.0588 38.0247L24.8824 40L27.9412 38.0247L31 32.8889V16.2963L27.5588 9.97531L24.5 8L21.0588 9.97531ZM23.0131 11.1596L24.4388 10.3412L25.7212 11.1694L24.4497 13.3863L23.0131 11.1596ZM26.952 13.0434L25.6599 15.2963H28.1784L26.952 13.0434ZM29 20.5035V31.2043L25.9161 32.054L29 20.5035ZM26.2877 34.0262L28.3299 33.4635L27.2964 35.1987L26.2877 34.0262ZM26.0769 36.8478L24.552 35.0752L23.1954 36.8774L24.7708 37.6912L26.0769 36.8478ZM21.8149 35.3857L22.8167 34.0549L20.6701 33.4635L21.8149 35.3857ZM20 31.2043L23.0839 32.054L20 20.5035V31.2043ZM21.2138 17.2963H27.7862L24.5 29.6048L21.2138 17.2963Z" fill="black"/>
</svg>

<svg xmlns="http://www.w3.org/2000/svg" viewBox="0 0 48 48">
  <path fill-rule="evenodd" clip-rule="evenodd" d="M23.302 15.296h-2.596l1.112-2.299 1.484 2.3Zm-2.243-5.32L18 16.295V32.89l3.059 5.136L24.882 40l3.06-1.975L31 32.889V16.296l-3.441-6.32L24.5 8l-3.441 1.975Zm1.954 1.184 1.426-.819 1.282.828-1.271 2.217-1.437-2.226Zm3.939 1.883-1.292 2.253h2.518l-1.226-2.253ZM29 20.503v10.701l-3.084.85L29 20.504Zm-2.712 13.523 2.042-.563-1.034 1.736-1.008-1.173Zm-.211 2.822-1.525-1.773-1.357 1.802 1.576.814 1.306-.843Zm-4.262-1.462 1.002-1.331-2.147-.591 1.145 1.922ZM20 31.204l3.084.85L20 20.504v10.7Zm1.214-13.908h6.572L24.5 29.605l-3.286-12.309Z"/>
</svg>
